app/dist/common/images/mcbride-plc.svg

<svg fill="none" height="18" viewBox="0 0 18 18" width="18" xmlns="http://www.w3.org/2000/svg"><path d="m0 0h18v18h-18z" fill="#f0f3fa"/><path d="m5.9126 11h-.9126l1.00749-4 1.26524.0014.16541 2.66361 1.19822-2.66361 1.36364-.0014-.62325 4h-.91261l.49642-3.18598-1.36449 3.18598h-.77789l-.16513-2.93975z" fill="#009e5a"/><g clip-rule="evenodd" fill-rule="evenodd"><path d="m14 7.94901c0 .72751-.9327.90566-.9327.90566l-.0699.00234c.4022.12572.8058.38179.8058.90329 0 1.0393-1.6176 1.2397-2.4336 1.2397-.8055 0-1.3554-.0868-1.3696-.089l.8304-3.80821c2.1495-.31178 3.1696.11871 3.1696.84622zm-2.6993 2.25939c.463.0695 1.2493-.0028 1.2493-.51499 0-.51069-1.0441-.40825-1.0502-.40774zm1.4897-2.09609c0 .4454-.6729.49254-1.1015.43557l.1781-.76171c.0058-.00075.9234-.11784.9234.32614z" fill="#009e5a"/><path d="m14.3231 6.95192s.3808-.28798.6744.04808c0 0 .1899-1.69191-2.72-1.97003-2.90992-.27812-6.2775 1.47076-6.2775 1.47076s2.55592-.99853 4.7837-.99853c2.2278 0 3.2208.74456 3.5394 1.44972z" fill="#4d5258"/><path d="m5.08333 8s-2.08333 1.46097-2.08333 2.7631c0 1.302 1.36403 2.2369 3.46883 2.2369 2.10479 0 3.34237-.1313 6.53117-1.3889 0 0-2.8907.8333-4.78772.8333s-4.37895-.2791-4.37895-2.1599c0-1.1232 1.25-2.2845 1.25-2.2845z" fill="#4d5258"/></g></svg>

<!-- by TradingView --><svg width="18" height="18" viewBox="0 0 18 18" fill="none" xmlns="http://www.w3.org/2000/svg">
<rect width="18" height="18" fill="#F0F3FA"/>
<path d="M5.9126 11H5L6.00749 7L7.27273 7.0014L7.43814 9.66501L8.63636 7.0014L10 7L9.37675 11H8.46414L8.96056 7.81402L7.59607 11H6.81818L6.65305 8.06025L5.9126 11Z" fill="#009E5A"/>
<path fill-rule="evenodd" clip-rule="evenodd" d="M14 7.94901C14 8.67652 13.0673 8.85467 13.0673 8.85467L12.9974 8.85701C13.3996 8.98273 13.8032 9.2388 13.8032 9.7603C13.8032 10.7996 12.1856 11 11.3696 11C10.5641 11 10.0142 10.9132 10 10.911L10.8304 7.10279C12.9799 6.79101 14 7.2215 14 7.94901ZM11.3007 10.2084C11.7637 10.2779 12.55 10.2056 12.55 9.69341C12.55 9.18272 11.5059 9.28516 11.4998 9.28567L11.3007 10.2084ZM12.7904 8.11231C12.7904 8.55771 12.1175 8.60485 11.6889 8.54788L11.867 7.78617C11.8728 7.78542 12.7904 7.66833 12.7904 8.11231Z" fill="#009E5A"/>
<path fill-rule="evenodd" clip-rule="evenodd" d="M14.3231 6.95192C14.3231 6.95192 14.7039 6.66394 14.9975 7C14.9975 7 15.1874 5.30809 12.2775 5.02997C9.36758 4.75185 6 6.50073 6 6.50073C6 6.50073 8.55592 5.5022 10.7837 5.5022C13.0115 5.5022 14.0045 6.24676 14.3231 6.95192Z" fill="#4D5258"/>
<path fill-rule="evenodd" clip-rule="evenodd" d="M5.08333 8C5.08333 8 3 9.46097 3 10.7631C3 12.0651 4.36403 13 6.46883 13C8.57362 13 9.8112 12.8687 13 11.6111C13 11.6111 10.1093 12.4444 8.21228 12.4444C6.31526 12.4444 3.83333 12.1653 3.83333 10.2845C3.83333 9.1613 5.08333 8 5.08333 8Z" fill="#4D5258"/>
</svg>
